!!!SOCIAL_FUNCTION:	moccasin game songs
!!!PDT:	1909
!!!OTL: No_144_If_I_Am_Beaten.krn
!!!REG: Great_Lakes
!!!LANG: Non-Tone
!!!LING_GROUP: Algonquin
**kern	**kern
*staff2	*staff1
=1-	=1-
*clefF4	*clefF4
*k[b-e-]	*k[b-e-]
*M4/4	*M4/4
16GG/LK	8f\L
8GG^/J	.
.	8f\J
16r	.
16GG/LK	(4.f\
8GG^/J	.
16r	.
16GG/LK	.
8GG^/J	.
.	8d\L)
16r	.
16GG/LK	8f\
8GG^/J	.
.	8d\J
16r	.
=2||	=2||
*M2/4	*M2/4
2r	8f\L
.	8B-\J
.	4B-\
=3||	=3||
*M3/4	*M3/4
2.r	2.B-\
=4||	=4||
*M4/4	*M4/4
1r	4f\
.	2d\
.	8f\L
.	8d\J
=5||	=5||
*M2/4	*M2/4
2r	8f\L
.	8B-\J
.	4B-\
=6||	=6||
*M3/4	*M3/4
2.r	8B-\L
.	8B-\J
.	2B-\
=7||	=7||
*M4/4	*M4/4
1r	8f\L
.	8d\J
.	2B-\
.	12d\L
.	12B-\
.	12F\J
=8	=8
1r	12F^\L
.	12F\
.	12F\J
.	2F\
.	4D\
=9	=9
1r	8B-\L
.	8B-\
.	8d\
.	8B-\J
.	4.F\
.	8D\
=10	=10
1r	12BB-/L
.	[12BB-/
.	12BB-/J]
.	2.BB-/
==	==
*-	*-
